/* XPM */
static char *graphic[] = {
/* width height num_colors chars_per_pixel */
"20 20 250 2", 
/* colors */
"   c #C7D9E6",
".  c #BABEC3",
"X  c #D6D9DC",
"o  c #6C6F71",
"O  c #E0E8EE",
"+  c #6B85A1",
"@  c #C8D5DE",
"#  c #C1D2DE",
"$  c #8092A5",
"%  c #C7D9E7",
"&  c #B3CCDE",
"*  c #8293A7",
"=  c #7B7E80",
"-  c #9AA3A9",
";  c #748DA7",
":  c #D0DFEB",
">  c #D6D9DD",
",  c #BFCFDB",
"<  c #BCD2E2",
"1  c #A9AEB4",
"2  c #B1C9DB",
"3  c #BACDDD",
"4  c #8092A6",
"5  c #CEDEEA",
"6  c #ABB3BA",
"7  c #D1DBE3",
"8  c #BDCEDA",
"9  c #E9F0F5",
"0  c #C6D2DC",
"q  c #EBF1F7",
"w  c #777A7C",
"e  c #A4BFD3",
"r  c #748FAA",
"t  c #C5D8E7",
"y  c #90969B",
"u  c #DFE3E6",
"i  c #AFCADD",
"p  c #DEE9F1",
"a  c #788A9D",
"s  c #E7EDF3",
"d  c #D6DDE3",
"f  c #E0EAF3",
"g  c #7A8B9F",
"h  c #687F98",
"j  c #DFE3E7",
"k  c #C8D9E5",
"l  c #DDE4E7",
"z  c #C1D6E5",
"x  c #717375",
"c  c #979B9E",
"v  c #6E88A3",
"b  c #CDD7E0",
"n  c #7B94AE",
"m  c #D3E0EB",
"M  c #708BA7",
"N  c #808284",
"B  c #D9DCDF",
"V  c #9FA7AD",
"C  c #CBD6DF",
"Z  c #9BA1A6",
"A  c #8C9298",
"S  c #D1E1EC",
"D  c #7B96B1",
"F  c #C2D2DE",
"G  c #CFDEE9",
"H  c #D2DBE2",
"J  c #8194A7",
"K  c #738EA7",
"L  c #D8E4ED",
"P  c #B2C9DB",
"I  c #758FA9",
"U  c #7E8184",
"Y  c #C0D1DD",
"T  c #A7C0D4",
"R  c #7F91A4",
"E  c #B0C4D6",
"W  c #8192A6",
"Q  c #D0DAE1",
"!  c #CFDEEA",
"~  c #BECEDA",
"^  c #BBD1E1",
"/  c #9BA3AA",
"(  c #EAF0F5",
")  c #D9E0E5",
"_  c #7F91A5",
"`  c #9EA4A7",
"'  c #CDDDE9",
"]  c #C2D4E2",
"[  c #EAF0F6",
"{  c #647D99",
"}  c #798A9D",
"|  c #7F91A6",
" . c #CED9E1",
".. c #CBDCE8",
"X. c #6E6F6F",
"o. c #B7CFDF",
"O. c #D7DDE3",
"+. c #D7DFE5",
"@. c #AEC7DA",
"#. c #C2D6E5",
"$. c #A9ADB0",
"%. c #727577",
"&. c #798A9E",
"*. c #B7CFE0",
"=. c #747679",
"-. c #E6EEF4",
";. c #C3D0DB",
":. c #D3D7DD",
">. c #C3D2DD",
",. c #C0D5E4",
"<. c #D0DCE6",
"1. c #DEE4E8",
"2. c #6F88A4",
"3. c #BED0DF",
"4. c #C9DBE8",
"5. c #D2DFEA",
"6. c #8495A8",
"7. c #AAC5D8",
"8. c #D2E1EC",
"9. c #D8DBDE",
"0. c #CAD5DE",
"q. c #A9B1B5",
"w. c #A0A7AE",
"e. c #6D87A3",
"r. c #B6BDC0",
"t. c #8294A7",
"y. c #929699",
"u. c #B5CEE0",
"i. c #69839E",
"p. c #E4EDF4",
"a. c #8495A9",
"s. c #D0E0EB",
"d. c #BFD0DB",
"f. c #A5A9AD",
"g. c #C1D1DD",
"h. c #CEDBE6",
"j. c #8294A8",
"k. c #EBF0F5",
"l. c #69839F",
"z. c #C5D5E3",
"x. c #C3C9CC",
"c. c #C8D4DE",
"v. c #E3E6E9",
"b. c #CFD9E0",
"n. c #8091A5",
"m. c #B0B6B9",
"M. c #BDCDD9",
"N. c #ABB4BB",
"B. c #EBF0F6",
"V. c #D7E3ED",
"C. c #E0E9F1",
"Z. c #999D9F",
"A. c #CCDCE8",
"S. c #7691AD",
"D. c #B1CCDF",
"F. c #C4D2DC",
"G. c #C3D6E5",
"H. c #B8C0C7",
"J. c #7E90A5",
"K. c #CCDCE9",
"L. c #C9D4DB",
"P. c #7A8CA0",
"I. c #B6CADB",
"U. c #6A819B",
"Y. c #DEE8F1",
"T. c #78899D",
"R. c #ABC3D6",
"E. c #CDD8E1",
"W. c #CADBE8",
"Q. c #B9BEC1",
"!. c #D7DADC",
"~. c #D3E1EC",
"^. c #73777A",
"/. c #E3E8EE",
"(. c #BFD4E3",
"). c #708CA8",
"_. c #C8D8E5",
"`. c #B4BEC5",
"'. c #B4CBDC",
"]. c #6E87A3",
"[. c #C8DAE7",
"{. c #C7D1D9",
"}. c #8394A7",
"|. c #D2DCE2",
" X c #D1E0EB",
".X c #D7DADD",
"XX c #C0D0DB",
"oX c #6D7072",
"OX c #DBE2E6",
"+X c #B2CADB",
"@X c #6C86A2",
"#X c #DDE3E8",
"$X c #C9D6DF",
"%X c #E3EAF1",
"&X c #8193A6",
"*X c #B4CDDF",
"=X c #8394A8",
"-X c #DBE0E5",
";X c #D1E0EC",
":X c #C0D0DC",
">X c #BDD3E3",
",X c #ECF2F7",
"<X c #E3EAF2",
"1X c #8193A7",
"2X c #68829E",
"3X c #A5BCD0",
"4X c #C5D2DB",
"5X c #D8E3ED",
"6X c #7F90A4",
"7X c #809BB4",
"8X c #636566",
"9X c #D1D7DA",
"0X c #E1EBF3",
"qX c #B7BDC3",
"wX c #EAEFF5",
"eX c #D9DFE5",
"rX c #C5D2DC",
"tX c #959DA3",
"yX c #D8E3EE",
"uX c #B7CCDC",
"iX c #DFE8F0",
"pX c #6F89A3",
"aX c #7F90A5",
"sX c #CED8E0",
"dX c #B7CEDE",
"fX c #B0CBDE",
"gX c #DBE4EB",
"hX c #E8EEF4",
"jX c #B9D1E2",
"kX c #B7CADB",
"lX c #5F6162",
"zX c #DADDDF",
"xX c #E0E4E8",
"cX c #7D8FA4",
"vX c #BBC7CF",
"bX c #DFE8F1",
"nX c #6F89A4",
"mX c #C4CBD1",
"MX c #E6EDF3",
"NX c #C1D0DA",
"BX c #7C95AF",
"VX c #AABED1",
"CX c #6D86A1",
"ZX c #E4EAF0",
"AX c #D3DCE2",
"SX c #677D97",
"DX c #8496A9",
"FX c #D2E2ED",
"GX c #C1D2DD",
"HX c #DBE6EF",
/* pixels */
"SXt.DXW a.* a.* 6.}.}.6.* a.* a.W DXt.h ",
"=XL.GX~ # M.8 d.Y :X:X:X, :X, g.~ F {.* ",
"&XXXi fX7.K pXe fXi i i i i i i i D.g.=X",
"$ NX*Xu.@.i.{ T u.*X& & & & & & & u.>.=X",
"6XF.P 2 R.CX2X3X+X2 o.*.*.*.*.*.*.jXrXW ",
"$ ;.BXv nXl.2X2.nXI '.< ^ ^ ^ ^ ^ >X@ j.",
"aX4Xn @X].+ + e.@X; dX,.(.(.(.(.(.z $X4 ",
"4 0.uXI.E r M VXkXI.#.G.G.G.G.G.G.t E.j.",
"| b [.4.] S.).3 W.[.%             W. .W ",
"$ sX..K.z.7XD 3.' ..A.............5 |.1X",
"_ Q G G ! _.k ;XFXS 8.: s.S s. XS 8.AX4 ",
"_ H m m m ~.5.V N.`./ h.0 tXc.vX- <.+.1X",
"_ d 5XV.V.V.yX6 oXo w.L C ^.q.y A 5X) 4 ",
"_ O.HXHXHXHXY.7 %.lXb.f p Z U ^.H.0XOXW ",
"| -XiXiXiXbXC.1 w x ` r.qXmX8X=.gXp.1.* ",
"J.-X%X%X%X<XO c Q.x.y.= m.l X.f.-.s xXW ",
"_ j MXMXMXMXhXhX9 [ #X$.9XZ.N eXhX( v.* ",
"cXu ( 9 9 9 ( k.wXB.hXZX/.. :.q [ ,Xv.4 ",
"J !.9.> > > > .XX .X> .X.X> .X.X> B zXj.",
"U.R g } } } } &.T.&.T.&.T.&.T.&.a P.n.SX"
};
